public/svgs/icons/bookable.svg

<svg fill="none" height="32" viewBox="0 0 32 32" width="32" xmlns="http://www.w3.org/2000/svg"><g fill="#aa7a4e"><path d="m24.0416 14.7618h-9.6751c-.2508-.8932-.8164-1.6655-1.5923-2.174s-1.7097-.719-2.6288-.5924c-.91904.1265-1.76121.5815-2.37083 1.2808s-.94547 1.5957-.94547 2.5234c0 .9278.33585 1.8241.94547 2.5234s1.45179 1.1543 2.37083 1.2809c.9191.1265 1.8529-.0839 2.6288-.5924.7759-.5086 1.3415-1.2808 1.5923-2.174h4.4888v2.5947h2.0758v-2.5947h2.0757v2.5947h2.0758v-3.6326c0-.1365-.027-.2717-.0793-.3979-.0524-.1261-.1291-.2406-.2258-.3371-.0967-.0964-.2115-.1728-.3378-.2247-.1263-.052-.2616-.0786-.3981-.0781zm-13.372 2.8022c-.349 0-.69013-.1035-.98028-.2973-.29015-.1939-.5163-.4695-.64984-.7919s-.16849-.6771-.10041-1.0194c.06808-.3422.23613-.6566.48288-.9034.24675-.2467.56114-.4148.90335-.4829.3423-.068.6971-.0331 1.0195.1004.3224.1336.5979.3597.7918.6499.1939.2901.2974.6313.2974.9802.0001.2318-.0454.4614-.1341.6756-.0886.2141-.2185.4088-.3824.5727-.1638.164-.3584.294-.5725.3828-.2141.0887-.4436.1344-.6754.1344z"/><path d="m15.9999 2.07576c2.6009-.00283 5.1499.72776 7.3544 2.10793l-1.9968 1.99688h5.6647v-5.664736l-2.166 2.166056c-2.6212-1.751673-5.7037-2.68512227-8.8563-2.68188159-8.82192 0-15.99988958 7.17796159-15.99988958 15.99989159-.00362334 3.167.93814858 6.263 2.70470958 8.8915l1.50077-1.4997c-1.39408-2.2132-2.13251-4.7761-2.12972-7.3918 0-7.68026 6.24387-13.92414 13.92413-13.92414zm13.2942 5.03371-1.4987 1.4987c1.3939 2.21323 2.132 4.77623 2.1287 7.39173 0 7.6803-6.2459 13.9242-13.9242 13.9242-2.6106.003-5.1688-.7325-7.37927-2.1214l2.05497-2.056h-5.66471v5.6647l2.11-2.11c2.62551 1.7624 5.71691 2.7019 8.87901 2.6985 8.822 0 16-7.178 16-16 .0033-3.1667-.9388-6.26243-2.7058-8.89043z"/></g></svg>

<svg width="32" height="32" viewBox="0 0 32 32" fill="none" xmlns="http://www.w3.org/2000/svg">
<path d="M24.0416 14.7618H14.3665C14.1157 13.8686 13.5501 13.0963 12.7742 12.5878C11.9983 12.0793 11.0645 11.8688 10.1454 11.9954C9.22636 12.1219 8.38419 12.5769 7.77457 13.2762C7.16495 13.9755 6.8291 14.8719 6.8291 15.7996C6.8291 16.7274 7.16495 17.6237 7.77457 18.323C8.38419 19.0223 9.22636 19.4773 10.1454 19.6039C11.0645 19.7304 11.9983 19.52 12.7742 19.0115C13.5501 18.5029 14.1157 17.7307 14.3665 16.8375H18.8553V19.4322H20.9311V16.8375H23.0068V19.4322H25.0826V15.7996C25.0826 15.6631 25.0556 15.5279 25.0033 15.4017C24.9509 15.2756 24.8742 15.1611 24.7775 15.0646C24.6808 14.9682 24.566 14.8918 24.4397 14.8399C24.3134 14.7879 24.1781 14.7613 24.0416 14.7618ZM10.6696 17.564C10.3206 17.564 9.97947 17.4605 9.68932 17.2667C9.39917 17.0728 9.17302 16.7972 9.03948 16.4748C8.90594 16.1524 8.87099 15.7977 8.93907 15.4554C9.00715 15.1132 9.1752 14.7988 9.42195 14.552C9.6687 14.3053 9.98309 14.1372 10.3253 14.0691C10.6676 14.0011 11.0224 14.036 11.3448 14.1695C11.6672 14.3031 11.9427 14.5292 12.1366 14.8194C12.3305 15.1095 12.434 15.4507 12.434 15.7996C12.4341 16.0314 12.3886 16.261 12.2999 16.4752C12.2113 16.6893 12.0814 16.884 11.9175 17.0479C11.7537 17.2119 11.5591 17.3419 11.345 17.4307C11.1309 17.5194 10.9014 17.5651 10.6696 17.5651V17.564Z" fill="#AA7A4E"/>
<path d="M15.9999 2.07576C18.6008 2.07293 21.1498 2.80352 23.3543 4.18369L21.3575 6.18057H27.0222V0.515834L24.8562 2.68189C22.235 0.930217 19.1525 -0.00323227 15.9999 8.40948e-06C7.17798 8.40948e-06 1.0416e-05 7.17797 1.0416e-05 15.9999C-0.00361292 19.1669 0.938159 22.2629 2.70472 24.8914L4.20549 23.3917C2.81141 21.1785 2.07298 18.6156 2.07577 15.9999C2.07577 8.31964 8.31964 2.07576 15.9999 2.07576ZM29.2941 7.10947L27.7954 8.60817C29.1893 10.8214 29.9274 13.3844 29.9241 15.9999C29.9241 23.6802 23.6782 29.9241 15.9999 29.9241C13.3893 29.9271 10.8311 29.1916 8.62063 27.8027L10.6756 25.7467H5.01089V31.4114L7.12089 29.3014C9.7464 31.0638 12.8378 32.0033 15.9999 31.9999C24.8219 31.9999 31.9999 24.8219 31.9999 15.9999C32.0032 12.8332 31.0611 9.73747 29.2941 7.10947Z" fill="#AA7A4E"/>
</svg>
